._scraped/app.urodapter.com/img/icons/mail.svg

<svg fill="none" height="21" viewBox="0 0 21 21" width="21" xmlns="http://www.w3.org/2000/svg"><g clip-rule="evenodd" fill="#072c3f" fill-rule="evenodd"><path d="m4.05078 5.78955v9.02595h13.65492v-9.02595zm-1.3-1.5c-.11046 0-.2.08954-.2.2v11.62595c0 .1104.08955.2.2.2h16.25492c.1104 0 .2-.0896.2-.2v-11.62595c0-.11046-.0896-.2-.2-.2z"/><path d="m10.3387 12.0698-7.41377-5.62443.9066-1.19502 7.07977 5.37105 7.011-5.36899.912 1.19091-7.3438 5.62388c-.3396.2601-.811.2611-1.1518.0026z"/></g></svg>

<svg width="21" height="21" viewBox="0 0 21 21" fill="none" xmlns="http://www.w3.org/2000/svg">
<path fill-rule="evenodd" clip-rule="evenodd" d="M4.05078 5.78955V14.8155H17.7057V5.78955H4.05078ZM2.75078 4.28955C2.64032 4.28955 2.55078 4.37909 2.55078 4.48955V16.1155C2.55078 16.2259 2.64033 16.3155 2.75078 16.3155H19.0057C19.1161 16.3155 19.2057 16.2259 19.2057 16.1155V4.48955C19.2057 4.37909 19.1161 4.28955 19.0057 4.28955H2.75078Z" fill="#072C3F"/>
<path fill-rule="evenodd" clip-rule="evenodd" d="M10.3387 12.0698L2.92493 6.44537L3.83153 5.25035L10.9113 10.6214L17.9223 5.25241L18.8343 6.44332L11.4905 12.0672C11.1509 12.3273 10.6795 12.3283 10.3387 12.0698Z" fill="#072C3F"/>
</svg>
